X:1
T:[ID 1-74b]
T:[ID 1-74b]
T:Bezeichnung standardisiert: Polnischer Tanz Poltantz
T:Urheber unbekannt Datum in der hier transkribierten schriftlichen Quelle: vermutlich vor 1767
C:Urheber unbekannt
C:Datum in der hier transkribierten schriftlichen Quelle: vermutlich vor 1767
L:1/8
M:none
K:D
V:1 treble 
V:1
 d2 ed/c/ | dA FD | d2 ed/c/ | d3 A | Bd/c/ dB | Ad/c/ de/f/ | g2 f2 | fe e2 :: d2 =c2 | %9
 B/=c/d/B/ GG | e2 d2 | ^c/d/e/c/ AA | a2 g2 | f/e/f/g/ aA | B/c/d/B/ c/d/e/c/ | %15
 d/e/f/d/ e/f/g/e/ | f/g/a/e/ fe/d/ | d4 :| %18

